X: 870
T: Larry O'Gaff
N:"2nd Setting"
N:"Collected by J.O'Neill"
B:O'Neill's 870
Z:Transcribed by Dan G. Petersen, dangp@post6.tele.dk
M:6/8
L:1/8
K:D
(3(A/B/c/)|dDD fed|aba afd|gbg faf|ede A2(3(A/B/c/)|
dDD fed|aba afd|gbg faf|ede d2:|
A|Add dcd|dfd ecA|Ace ede|fde d2d2|
dfe dcB|AdB AFD|GBG FAF|1 EDE D2:|2 EFG ABc|]


